source/images/icon-develop.svg

<svg height="65" viewBox="0 0 120 65" width="120" xmlns="http://www.w3.org/2000/svg"><g fill="#0093c9" fill-rule="evenodd"><path d="m6.34185124 3.68687879c.99471074 0 1.80694215.79772727 1.80694215 1.80227273 0 .98780303-.81223141 1.79340909-1.80694215 1.79340909-1.00264463 0-1.81487603-.80560606-1.81487603-1.79340909 0-.99666667.8122314-1.80227273 1.81487603-1.80227273zm5.43371896 0c.9966943 0 1.8059505.79772727 1.8059505 1.80227273 0 .98780303-.8092562 1.79340909-1.8059505 1.79340909-1.0026446 0-1.81289251-.80560606-1.81289251-1.79340909 0-.99666667.81024791-1.80227273 1.81289251-1.80227273zm21.945124 32.88606061h-30.10016527v-26.5554546h43.46876037v3.2923485h3.629752v-8.72871209c0-1.98643939-1.6294215-3.59666666-3.629752-3.59666666h-43.46876037c-1.99933885 0-3.62082645 1.61022727-3.62082645 3.59666666v31.99181819c0 1.9854545 1.6214876 3.6035606 3.62082645 3.6035606h30.10016527z"/><path d="m40.0626446 16.0118636c.9947108 0 1.8069422.7977273 1.8069422 1.8022728 0 .987803-.8122314 1.7934091-1.8069422 1.7934091-1.0026446 0-1.814876-.8056061-1.814876-1.7934091 0-.9966667.8122314-1.8022728 1.814876-1.8022728zm5.433719 0c.9966943 0 1.8059504.7977273 1.8059504 1.8022728 0 .987803-.8092561 1.7934091-1.8059504 1.7934091-1.0026446 0-1.8128925-.8056061-1.8128925-1.7934091 0-.9966667.8102479-1.8022728 1.8128925-1.8022728zm23.7520662 32.8860606h-31.9071075v-26.5554545h43.4687603v3.3415909h3.6297521v-8.7779545c0-1.9864394-1.6294215-3.5966667-3.6297521-3.5966667h-43.4687603c-1.9993388 0-3.6208264 1.6102273-3.6208264 3.5966667v31.9918181c0 1.9854546 1.6214876 3.6035606 3.6208264 3.6035606h31.9071075z"/><path d="m72.8687603 61.272447h43.4687607v-26.5554546h-43.4687607zm2.7213223-32.8860606c.9947108 0 1.8059505.7977272 1.8059505 1.8012878 0 .9878031-.8112397 1.794394-1.8059505 1.794394-1.0026446 0-1.814876-.8065909-1.814876-1.794394 0-.9956818.8122314-1.8012878 1.814876-1.8012878zm5.4337191 0c.9966942 0 1.8059504.7977272 1.8059504 1.8012878 0 .9878031-.8092562 1.794394-1.8059504 1.794394-1.0026447 0-1.8128926-.8065909-1.8128926-1.794394 0-.9956818.8102479-1.8012878 1.8128926-1.8012878zm35.3137193-2.7024243h-43.4687607c-1.9993388 0-3.6208264 1.6102273-3.6208264 3.5956818v31.9928031c0 1.9854545 1.6214876 3.6035606 3.6208264 3.6035606h43.4687607c2.00033 0 3.629752-1.6181061 3.629752-3.6035606v-31.9928031c0-1.9854545-1.629422-3.5956818-3.629752-3.5956818z"/><path d="m55.0133554 37.3837652c-2.1480992 0-3.8895868-1.7234849-3.8895868-3.8487879 0-2.1253031 1.7414876-3.8487879 3.8895868-3.8487879 2.1480991 0 3.8895867 1.7234848 3.8895867 3.8487879 0 2.125303-1.7414876 3.8487879-3.8895867 3.8487879m8.928595 3.4262878-4.0899173-4.0477272c.6287603-.9218182.9957024-2.0317425.9957024-3.2273485 0-3.1889394-2.6122314-5.7731818-5.8343801-5.7731818-3.2221488 0-5.8343802 2.5842424-5.8343802 5.7731818s2.6122314 5.7731818 5.8343802 5.7731818c.9540496 0 1.8555372-.2265152 2.6509091-.6283333l4.2158677 4.1708333s.6872728.6805303 1.3745455 0l.6872727-.6795455c.6882645-.6815151 0-1.3610606 0-1.3610606"/><path d="m105.14638 42.1935682c.231075.2294697.347108.5081818.347108.8361363 0 .3279546-.116033.6066667-.347108.8361364l-8.9642974 8.9030303-1.6849586 1.6722727c-.2310744.2294697-.5117356.3437122-.8419835.3437122s-.6109091-.1142425-.8419835-.3437122l-1.6839669-1.6722727-4.4816529-4.4515151c-.2310744-.2294697-.3471074-.5081819-.3471074-.8361364s.116033-.6066667.3471074-.8361364l1.6839669-1.6722727c.2310744-.2294697.5117356-.344697.8419835-.344697s.6109091.1152273.8419835.344697l3.6396694 3.627197 8.1233055-8.0787121c.231075-.2294697.511736-.344697.841984-.344697s.610909.1152273.841983.344697z"/><path d="m19.4363306 20.6827045v1.3768182l-9.74776862 4.3047728v-2.1046213l6.51173552-2.8885606-6.51173552-2.8885606v-2.1046212z"/><path d="m20.9771901 29.5583561h9.6317355v-.9562879h-9.6317355z"/></g></svg>

<?xml version="1.0" encoding="UTF-8"?>
<svg width="120px" height="65px" viewBox="0 0 120 65" version="1.1" xmlns="http://www.w3.org/2000/svg" xmlns:xlink="http://www.w3.org/1999/xlink">
    <!-- Generator: Sketch 41.1 (35376) - https://www.sketchapp.com -->
    <title>icon-develop</title>
    <desc>Created with Sketch.</desc>
    <defs></defs>
    <g id="Updated-HOME" stroke="none" stroke-width="1" fill="none" fill-rule="evenodd">
        <g id="home-updated" transform="translate(-660.000000, -343.000000)" fill="#0093C9">
            <g id="Develop" transform="translate(532.000000, 280.000000)">
                <g id="icon-develop" transform="translate(128.000000, 63.000000)">
                    <path d="M6.34185124,3.68687879 C7.33656198,3.68687879 8.14879339,4.48460606 8.14879339,5.48915152 C8.14879339,6.47695455 7.33656198,7.28256061 6.34185124,7.28256061 C5.33920661,7.28256061 4.52697521,6.47695455 4.52697521,5.48915152 C4.52697521,4.49248485 5.33920661,3.68687879 6.34185124,3.68687879 L6.34185124,3.68687879 Z M11.7755702,3.68687879 C12.7722645,3.68687879 13.5815207,4.48460606 13.5815207,5.48915152 C13.5815207,6.47695455 12.7722645,7.28256061 11.7755702,7.28256061 C10.7729256,7.28256061 9.96267769,6.47695455 9.96267769,5.48915152 C9.96267769,4.49248485 10.7729256,3.68687879 11.7755702,3.68687879 L11.7755702,3.68687879 Z M33.7206942,36.5729394 L3.62052893,36.5729394 L3.62052893,10.0174848 L47.0892893,10.0174848 L47.0892893,13.3098333 L50.7190413,13.3098333 L50.7190413,4.58112121 C50.7190413,2.59468182 49.0896198,0.984454545 47.0892893,0.984454545 L3.62052893,0.984454545 C1.62119008,0.984454545 -0.000297520661,2.59468182 -0.000297520661,4.58112121 L-0.000297520661,36.5729394 C-0.000297520661,38.5583939 1.62119008,40.1765 3.62052893,40.1765 L33.7206942,40.1765 L33.7206942,36.5729394 Z" id="Fill-1"></path>
                    <path d="M40.0626446,16.0118636 C41.0573554,16.0118636 41.8695868,16.8095909 41.8695868,17.8141364 C41.8695868,18.8019394 41.0573554,19.6075455 40.0626446,19.6075455 C39.06,19.6075455 38.2477686,18.8019394 38.2477686,17.8141364 C38.2477686,16.8174697 39.06,16.0118636 40.0626446,16.0118636 L40.0626446,16.0118636 Z M45.4963636,16.0118636 C46.4930579,16.0118636 47.302314,16.8095909 47.302314,17.8141364 C47.302314,18.8019394 46.4930579,19.6075455 45.4963636,19.6075455 C44.493719,19.6075455 43.6834711,18.8019394 43.6834711,17.8141364 C43.6834711,16.8174697 44.493719,16.0118636 45.4963636,16.0118636 L45.4963636,16.0118636 Z M69.2484298,48.8979242 L37.3413223,48.8979242 L37.3413223,22.3424697 L80.8100826,22.3424697 L80.8100826,25.6840606 L84.4398347,25.6840606 L84.4398347,16.9061061 C84.4398347,14.9196667 82.8104132,13.3094394 80.8100826,13.3094394 L37.3413223,13.3094394 C35.3419835,13.3094394 33.7204959,14.9196667 33.7204959,16.9061061 L33.7204959,48.8979242 C33.7204959,50.8833788 35.3419835,52.5014848 37.3413223,52.5014848 L69.2484298,52.5014848 L69.2484298,48.8979242 Z" id="Fill-4"></path>
                    <path d="M72.8687603,61.272447 L116.337521,61.272447 L116.337521,34.7169924 L72.8687603,34.7169924 L72.8687603,61.272447 Z M75.5900826,28.3863864 C76.5847934,28.3863864 77.3960331,29.1841136 77.3960331,30.1876742 C77.3960331,31.1754773 76.5847934,31.9820682 75.5900826,31.9820682 C74.587438,31.9820682 73.7752066,31.1754773 73.7752066,30.1876742 C73.7752066,29.1919924 74.587438,28.3863864 75.5900826,28.3863864 L75.5900826,28.3863864 Z M81.0238017,28.3863864 C82.0204959,28.3863864 82.8297521,29.1841136 82.8297521,30.1876742 C82.8297521,31.1754773 82.0204959,31.9820682 81.0238017,31.9820682 C80.021157,31.9820682 79.2109091,31.1754773 79.2109091,30.1876742 C79.2109091,29.1919924 80.021157,28.3863864 81.0238017,28.3863864 L81.0238017,28.3863864 Z M116.337521,25.6839621 L72.8687603,25.6839621 C70.8694215,25.6839621 69.2479339,27.2941894 69.2479339,29.2796439 L69.2479339,61.272447 C69.2479339,63.2579015 70.8694215,64.8760076 72.8687603,64.8760076 L116.337521,64.8760076 C118.337851,64.8760076 119.967273,63.2579015 119.967273,61.272447 L119.967273,29.2796439 C119.967273,27.2941894 118.337851,25.6839621 116.337521,25.6839621 L116.337521,25.6839621 Z" id="Fill-6"></path>
                    <path d="M55.0133554,37.3837652 C52.8652562,37.3837652 51.1237686,35.6602803 51.1237686,33.5349773 C51.1237686,31.4096742 52.8652562,29.6861894 55.0133554,29.6861894 C57.1614545,29.6861894 58.9029421,31.4096742 58.9029421,33.5349773 C58.9029421,35.6602803 57.1614545,37.3837652 55.0133554,37.3837652 M63.9419504,40.810053 L59.8520331,36.7623258 C60.4807934,35.8405076 60.8477355,34.7305833 60.8477355,33.5349773 C60.8477355,30.3460379 58.2355041,27.7617955 55.0133554,27.7617955 C51.7912066,27.7617955 49.1789752,30.3460379 49.1789752,33.5349773 C49.1789752,36.7239167 51.7912066,39.3081591 55.0133554,39.3081591 C55.967405,39.3081591 56.8688926,39.0816439 57.6642645,38.6798258 L61.8801322,42.8506591 C61.8801322,42.8506591 62.567405,43.5311894 63.2546777,42.8506591 L63.9419504,42.1711136 C64.6302149,41.4895985 63.9419504,40.810053 63.9419504,40.810053" id="Fill-8"></path>
                    <path d="M105.14638,42.1935682 C105.377455,42.4230379 105.493488,42.70175 105.493488,43.0297045 C105.493488,43.3576591 105.377455,43.6363712 105.14638,43.8658409 L96.1820826,52.7688712 L94.497124,54.4411439 C94.2660496,54.6706136 93.9853884,54.7848561 93.6551405,54.7848561 C93.3248926,54.7848561 93.0442314,54.6706136 92.813157,54.4411439 L91.1291901,52.7688712 L86.6475372,48.3173561 C86.4164628,48.0878864 86.3004298,47.8091742 86.3004298,47.4812197 C86.3004298,47.1532652 86.4164628,46.874553 86.6475372,46.6450833 L88.3315041,44.9728106 C88.5625785,44.7433409 88.8432397,44.6281136 89.1734876,44.6281136 C89.5037355,44.6281136 89.7843967,44.7433409 90.0154711,44.9728106 L93.6551405,48.6000076 L101.778446,40.5212955 C102.009521,40.2918258 102.290182,40.1765985 102.62043,40.1765985 C102.950678,40.1765985 103.231339,40.2918258 103.462413,40.5212955 L105.14638,42.1935682 Z" id="Fill-9"></path>
                    <polygon id="Fill-10" points="19.4363306 20.6827045 19.4363306 22.0595227 9.68856198 26.3642955 9.68856198 24.2596742 16.2002975 21.3711136 9.68856198 18.482553 9.68856198 16.3779318"></polygon>
                    <polygon id="Fill-11" points="20.9771901 29.5583561 30.6089256 29.5583561 30.6089256 28.6020682 20.9771901 28.6020682"></polygon>
                </g>
            </g>
        </g>
    </g>
</svg>
